gama.ui.shared/icons_svg/dark/editor/command.nextedit.svg

<svg height="24.75" viewBox="-850.872 -3263.76 24.75 24.75" width="24.75" xmlns="http://www.w3.org/2000/svg"><g fill="none"><circle cx="-838.497" cy="-3251.385" fill="#666" r="8"/><circle cx="-838.497" cy="-3251.385" r="8"/><circle cx="-838.497" cy="-3251.385" fill="#666" r="8"/><circle cx="-838.497" cy="-3251.385" r="8"/><path d="m-835.303-3251.769-2.6496-2.6496c-.1644-.1644-.1644-.431 0-.5954.1644-.1645.431-.1645.5955 0l3.3684 3.3684c.1644.1644.1644.431 0 .5956l-3.3684 3.3683c-.1645.1644-.4311.1644-.5955 0-.1644-.1643-.1644-.4311 0-.5955l2.6496-2.6498h-7.4045c-.2325 0-.4211-.1884-.4211-.421 0-.2324.1886-.421.4211-.421zm-3.194-7.579c4.4183 0 8 3.582 8 8 0 4.4184-3.5817 8-8 8s-8-3.5816-8-8c0-4.418 3.5817-8 8-8zm0 .8422c-3.9532 0-7.1579 3.2048-7.1579 7.1578 0 3.9533 3.2047 7.158 7.1579 7.158s7.1579-3.2047 7.1579-7.158c0-3.953-3.2047-7.1578-7.1579-7.1578z" fill="#c0e0ff"/></g></svg>

<?xml version="1.0" encoding="UTF-8" standalone="no"?>
<!DOCTYPE svg PUBLIC "-//W3C//DTD SVG 1.1//EN" "http://www.w3.org/Graphics/SVG/1.1/DTD/svg11.dtd">
<svg xmlns="http://www.w3.org/2000/svg" xmlns:dc="http://purl.org/dc/elements/1.1/" version="1.1" xmlns:xl="http://www.w3.org/1999/xlink" viewBox="-850.872 -3263.7598 24.75 24.75" width="24.75" height="24.75">
  <defs/>
  <g id="SOURCES" stroke-dasharray="none" stroke-opacity="1" stroke="none" fill="none" fill-opacity="1">
    <title>SOURCES</title>
    <g id="SOURCES_Dark">
      <title>Dark</title>
      <g id="Group_12228">
        <g id="Group_12230">
          <g id="Graphic_12233">
            <circle cx="-838.497" cy="-3251.3848" r="8.00000702080163" fill="#666"/>
            <circle cx="-838.497" cy="-3251.3848" r="8.00000702080163" stroke="black" stroke-linecap="round" stroke-linejoin="round" stroke-width="0"/>
          </g>
          <g id="Graphic_12232"/>
          <g id="Graphic_12231">
            <circle cx="-838.497" cy="-3251.3848" r="8.00000702080163" fill="#666"/>
            <circle cx="-838.497" cy="-3251.3848" r="8.00000702080163" stroke="black" stroke-linecap="round" stroke-linejoin="round" stroke-width="0"/>
          </g>
        </g>
        <g id="Graphic_12229">
          <path d="M -835.303 -3251.769 L -837.9526 -3254.4186 C -838.117 -3254.583 -838.117 -3254.8496 -837.9526 -3255.014 C -837.7882 -3255.1785 -837.5216 -3255.1785 -837.3571 -3255.014 L -833.9887 -3251.6456 C -833.8243 -3251.4812 -833.8243 -3251.2146 -833.9887 -3251.05 L -837.3571 -3247.6817 C -837.5216 -3247.5173 -837.7882 -3247.5173 -837.9526 -3247.6817 C -838.117 -3247.846 -838.117 -3248.1128 -837.9526 -3248.2772 L -835.303 -3250.927 L -842.7075 -3250.927 C -842.94 -3250.927 -843.1286 -3251.1154 -843.1286 -3251.348 C -843.1286 -3251.5804 -842.94 -3251.769 -842.7075 -3251.769 L -835.303 -3251.769 Z M -838.497 -3259.348 C -834.0787 -3259.348 -830.497 -3255.766 -830.497 -3251.348 C -830.497 -3246.9296 -834.0787 -3243.348 -838.497 -3243.348 C -842.9153 -3243.348 -846.497 -3246.9296 -846.497 -3251.348 C -846.497 -3255.766 -842.9153 -3259.348 -838.497 -3259.348 Z M -838.497 -3258.5058 C -842.4502 -3258.5058 -845.6549 -3255.301 -845.6549 -3251.348 C -845.6549 -3247.3947 -842.4502 -3244.19 -838.497 -3244.19 C -834.5438 -3244.19 -831.3391 -3247.3947 -831.3391 -3251.348 C -831.3391 -3255.301 -834.5438 -3258.5058 -838.497 -3258.5058 Z" fill="#c0e0ff"/>
        </g>
      </g>
    </g>
  </g>
</svg>
